X: 450
T: The Blue Eyed Maid
N:"Moderate"
N:Irish title: aindear na sul-gorm
B:O'Neill's 450
Z:Transcribed by henrik.norbeck@mailbox.swipnet.se
M:C
L:1/8
K:G
G>A | B2 (g>e) (d<B) (AB) | G2 d>e d2 G>A | B2 (ge) (d<B) A>G | B2 e>f e2 z ||
g | dega b2 (a>g) | (ag)(ab) d2 (ga) | (g/a/b) ag e2 ge | dB A>G G2 ||


